X: 1
T: A Night On The Gin
M: 6/8
L: 1/8
R: jig
K: Dmaj
&quot;D&quot;a2d dcd|&quot;D&quot;c2dA2d|&quot;D&quot;c2dA2B|&quot;C&quot;=c3c3|
&quot;D&quot;A2d dcd|&quot;D&quot;c2dA2B|&quot;C&quot;=c2AG2E|&quot;D&quot;F2DD3:|
&quot;D&quot;F2AA2=c|&quot;G&quot;B2GG2B|&quot;F&quot;A2=FF2G|&quot;A7&quot;A2EE2A|
&quot;D&quot;F2AA2=c|&quot;G&quot;B2GG2B|&quot;F&quot;AG=F&quot;A7&quot;G2E|&quot;D&quot;D3D3:|
&quot;D&quot;F2AA2F|&quot;G&quot;G2B &quot;A&quot;ABc|&quot;D&quot;d2AA2F|&quot;Em&quot;A2G&quot;A7&quot;E2A|
&quot;D&quot;F2AA2F|&quot;G&quot;G2B &quot;A7&quot;ABc|&quot;D&quot;d2zA2z|&quot;A&quot;E3&quot;D&quot;D3:|
